X: 27
T:-Da Forefit o da Ship
M:4/4
L:1/8
Q:180
K:D
AB|d2 dB dA F2|A-BAF E-DEF|(3AAA AF ABde|f2 ed B2::!
AB|d2 f-d adfd-|d2 f-d eAAf|a2- ae- fde-f|dBAF E2:|
